svg-icons/octicons/gist.svg

<svg viewBox="0 0 12 16" xmlns="http://www.w3.org/2000/svg">
  <path d="M7.5 5l2.5 2.5-2.5 2.5-0.75-0.75 1.75-1.75-1.75-1.75 0.75-0.75z m-3 0L2 7.5l2.5 2.5 0.75-0.75-1.75-1.75 1.75-1.75-0.75-0.75zM0 13V2c0-0.55 0.45-1 1-1h10c0.55 0 1 0.45 1 1v11c0 0.55-0.45 1-1 1H1c-0.55 0-1-0.45-1-1z m1 0h10V2H1v11z" />
</svg>

<svg xmlns="http://www.w3.org/2000/svg" viewBox="0 0 12 16"><path d="M7.5 5L10 7.5 7.5 10l-.75-.75L8.5 7.5 6.75 5.75 7.5 5zm-3 0L2 7.5 4.5 10l.75-.75L3.5 7.5l1.75-1.75L4.5 5zM0 13V2c0-.55.45-1 1-1h10c.55 0 1 .45 1 1v11c0 .55-.45 1-1 1H1c-.55 0-1-.45-1-1zm1 0h10V2H1v11z"/></svg>
